X: 34918
T: Rockabill Island
R: reel
M: 4/4
K: Gmajor
|:D2Gd BAAA|GGGA GEEE|D2Gd BAAA|GGGA G2 ed|
geee dBAF|GGGA GEEE|D2Gd BAAA|GGGA G2 z2:|
|:eeed Bded|AGAB GEEE|eeed Bdef|ggga g z ed|
geee dBAF|GGGA GEEE|D2Gd BAAA|GGGA G2 z2:|

